teeny/solid/briefcase.svg

<svg width="15" height="15" viewBox="0 0 15 15" fill="none" xmlns="http://www.w3.org/2000/svg">
<path fill-rule="evenodd" clip-rule="evenodd" d="M5 2.5V3H1.5C0.671573 3 0 3.67157 0 4.5V11H15V4.5C15 3.67157 14.3284 3 13.5 3H10V2.5C10 1.11929 8.88071 0 7.5 0C6.11929 0 5 1.11929 5 2.5ZM7.5 1C6.67157 1 6 1.67157 6 2.5V3H9V2.5C9 1.67157 8.32843 1 7.5 1Z" fill="black"/>
<path d="M15 12H0V13.5C0 14.3284 0.671573 15 1.5 15H13.5C14.3284 15 15 14.3284 15 13.5V12Z" fill="black"/>
</svg>

<svg viewBox="0 0 15 15" xmlns="http://www.w3.org/2000/svg"><path fill-rule="evenodd" d="M5 2.5V3H1.5C.67 3 0 3.67 0 4.5V11h15V4.5c0-.83-.68-1.5-1.5-1.5H10v-.5C10 1.11 8.88 0 7.5 0 6.11 0 5 1.11 5 2.5ZM7.5 1C6.67 1 6 1.67 6 2.5V3h3v-.5C9 1.67 8.32 1 7.5 1Z"/><path d="M15 12H0v1.5c0 .82.67 1.5 1.5 1.5h12c.82 0 1.5-.68 1.5-1.5V12Z"/></svg>
